X:1
T: Mr. McDonald of Gordon Castle
C:William Marshall
R:Strathspey
Q: 232
K:D
M:4/4
L:1/16
|:F2|D4 A3F DD3 A3F|D4 A3F B2E2 E2F2|D4 A3F DD3 A3G|F3d E3c d3D D2F2|
D4 A3F DD3 A3F|D4 A3F B2E2 E2F2|D4 A3F DD3 A3G|F3d E3c d3D D2g2|
f3d e3c d2A2 F2D2|G3B F3A E2e2 e2g2|f3d e3c d2A2 F2D2|G3B AGFE D2d2 d2g2|
f3d e3c d2A2 F2D2|G3B F3A E2e2 e2g2|f3d e3c d3A B3G|Fd3 E3c dD3 D2:|
